usr/share/icons/biglinux-icons-material/24/actions/format-justify-left.svg

<svg xmlns="http://www.w3.org/2000/svg" viewBox="0 0 24 24"><path d="M4 4v1h16V4H4zm0 2v1h9V6H4zm0 4v1h10v-1H4zm0 2v1h4v-1H4zm0 4v1h10v-1H4zm0 2v1h7v-1H4zm8 1v1h2v-1h-2z" style="fill:currentColor;fill-opacity:1;stroke:none;color:#dedede"/></svg>

<svg xmlns="http://www.w3.org/2000/svg" viewBox="0 0 24 24">
  <defs id="defs3051">
    <style type="text/css" id="current-color-scheme">
      .ColorScheme-Text {
        color:#363636;
      }
      </style>
  </defs>
 <path style="fill:currentColor;fill-opacity:1;stroke:none" 
     d="M 4 4 L 4 5 L 20 5 L 20 4 L 4 4 z M 4 6 L 4 7 L 13 7 L 13 6 L 4 6 z M 4 10 L 4 11 L 14 11 L 14 10 L 4 10 z M 4 12 L 4 13 L 8 13 L 8 12 L 4 12 z M 4 16 L 4 17 L 14 17 L 14 16 L 4 16 z M 4 18 L 4 19 L 11 19 L 11 18 L 4 18 z M 12 19 L 12 20 L 14 20 L 14 19 L 12 19 z "
     class="ColorScheme-Text"
     />
</svg>
